flaticon/holiday/spider-web.svg

<svg xmlns="http://www.w3.org/2000/svg" width="32" height="32" viewBox="0 0 24 24">
    <path d="M 23.601562 11.601562 L 22.242188 11.601562 C 22.175781 11.527344 22.097656 11.464844 21.996094 11.429688 C 20.816406 11.007812 19.859375 10.101562 19.378906 8.941406 C 18.902344 7.785156 18.933594 6.46875 19.472656 5.335938 C 19.519531 5.238281 19.53125 5.140625 19.523438 5.039062 L 20.484375 4.082031 C 20.640625 3.925781 20.640625 3.671875 20.484375 3.515625 C 20.328125 3.359375 20.074219 3.359375 19.917969 3.515625 L 18.960938 4.476562 C 18.859375 4.46875 18.761719 4.480469 18.664062 4.527344 C 17.53125 5.066406 16.214844 5.101562 15.054688 4.621094 C 13.898438 4.140625 12.992188 3.183594 12.570312 2.003906 C 12.535156 1.902344 12.472656 1.824219 12.398438 1.757812 L 12.398438 0.398438 C 12.398438 0.179688 12.222656 0 12 0 C 11.777344 0 11.601562 0.179688 11.601562 0.398438 L 11.601562 1.757812 C 11.527344 1.824219 11.464844 1.902344 11.429688 2.003906 C 11.007812 3.183594 10.101562 4.140625 8.941406 4.621094 C 7.78125 5.101562 6.46875 5.066406 5.335938 4.527344 C 5.238281 4.480469 5.140625 4.46875 5.039062 4.476562 L 4.082031 3.515625 C 3.925781 3.359375 3.671875 3.359375 3.515625 3.515625 C 3.359375 3.671875 3.359375 3.925781 3.515625 4.082031 L 4.476562 5.039062 C 4.46875 5.140625 4.480469 5.238281 4.527344 5.335938 C 5.066406 6.46875 5.097656 7.78125 4.617188 8.941406 C 4.140625 10.101562 3.183594 11.007812 2.003906 11.429688 C 1.902344 11.464844 1.824219 11.527344 1.757812 11.601562 L 0.398438 11.601562 C 0.179688 11.601562 0 11.777344 0 12 C 0 12.222656 0.179688 12.398438 0.398438 12.398438 L 1.757812 12.398438 C 1.824219 12.472656 1.902344 12.535156 2.003906 12.570312 C 3.183594 12.992188 4.140625 13.898438 4.621094 15.058594 C 5.097656 16.214844 5.066406 17.53125 4.527344 18.664062 C 4.480469 18.761719 4.46875 18.859375 4.476562 18.960938 L 3.515625 19.917969 C 3.359375 20.074219 3.359375 20.328125 3.515625 20.484375 C 3.59375 20.5625 3.695312 20.601562 3.796875 20.601562 C 3.902344 20.601562 4.003906 20.5625 4.082031 20.484375 L 5.042969 19.523438 C 5.140625 19.53125 5.242188 19.515625 5.335938 19.472656 C 6.46875 18.933594 7.785156 18.898438 8.945312 19.378906 C 10.101562 19.859375 11.007812 20.8125 11.429688 21.996094 C 11.464844 22.097656 11.527344 22.175781 11.601562 22.242188 L 11.601562 23.601562 C 11.601562 23.820312 11.777344 24 12 24 C 12.222656 24 12.402344 23.820312 12.402344 23.601562 L 12.402344 22.242188 C 12.472656 22.175781 12.535156 22.097656 12.570312 21.996094 C 12.992188 20.816406 13.898438 19.859375 15.058594 19.378906 C 16.21875 18.898438 17.53125 18.933594 18.664062 19.472656 C 18.761719 19.519531 18.859375 19.53125 18.960938 19.523438 L 19.921875 20.484375 C 19.996094 20.5625 20.101562 20.601562 20.203125 20.601562 C 20.304688 20.601562 20.40625 20.5625 20.484375 20.484375 C 20.640625 20.328125 20.640625 20.074219 20.484375 19.917969 L 19.527344 18.960938 C 19.53125 18.859375 19.519531 18.761719 19.472656 18.664062 C 18.933594 17.53125 18.902344 16.21875 19.382812 15.058594 C 19.863281 13.898438 20.816406 12.992188 21.996094 12.570312 C 22.097656 12.535156 22.175781 12.472656 22.242188 12.402344 L 23.601562 12.402344 C 23.820312 12.402344 24 12.222656 24 12 C 24 11.777344 23.820312 11.601562 23.601562 11.601562 Z M 18.640625 9.25 C 19.042969 10.214844 19.722656 11.027344 20.578125 11.601562 L 16.261719 11.601562 C 16.042969 11.238281 15.847656 10.863281 15.683594 10.472656 C 15.523438 10.085938 15.398438 9.679688 15.296875 9.269531 L 18.347656 6.214844 C 18.148438 7.226562 18.242188 8.28125 18.640625 9.25 Z M 14.644531 14.078125 L 12.964844 12.398438 L 15.339844 12.398438 C 15.195312 12.667969 15.0625 12.941406 14.945312 13.21875 C 14.828125 13.5 14.734375 13.789062 14.644531 14.078125 Z M 9.054688 13.21875 C 8.9375 12.941406 8.804688 12.667969 8.660156 12.398438 L 11.035156 12.398438 L 9.355469 14.078125 C 9.265625 13.789062 9.171875 13.5 9.054688 13.21875 Z M 9.355469 9.921875 L 11.035156 11.601562 L 8.660156 11.601562 C 8.804688 11.332031 8.9375 11.058594 9.054688 10.78125 C 9.171875 10.5 9.265625 10.210938 9.355469 9.921875 Z M 12.398438 8.65625 C 12.9375 8.945312 13.496094 9.179688 14.078125 9.355469 L 12.398438 11.035156 Z M 11.601562 11.035156 L 9.921875 9.355469 C 10.503906 9.179688 11.0625 8.945312 11.601562 8.65625 Z M 11.601562 12.964844 L 11.601562 15.34375 C 11.0625 15.054688 10.503906 14.820312 9.921875 14.644531 Z M 12.398438 12.964844 L 14.078125 14.644531 C 13.496094 14.820312 12.9375 15.054688 12.398438 15.34375 Z M 12.964844 11.601562 L 14.644531 9.921875 C 14.734375 10.210938 14.828125 10.5 14.945312 10.78125 C 15.0625 11.058594 15.195312 11.332031 15.339844 11.601562 Z M 14.75 5.359375 C 15.71875 5.757812 16.773438 5.851562 17.785156 5.652344 L 14.730469 8.703125 C 13.910156 8.5 13.128906 8.175781 12.398438 7.734375 L 12.398438 3.421875 C 12.972656 4.277344 13.785156 4.957031 14.75 5.359375 Z M 9.25 5.359375 C 10.214844 4.957031 11.027344 4.277344 11.601562 3.421875 L 11.601562 7.734375 C 10.875 8.175781 10.089844 8.5 9.269531 8.703125 L 6.214844 5.652344 C 7.226562 5.851562 8.28125 5.757812 9.25 5.359375 Z M 5.359375 9.25 C 5.757812 8.28125 5.851562 7.226562 5.652344 6.214844 L 8.703125 9.269531 C 8.601562 9.679688 8.476562 10.085938 8.316406 10.472656 C 8.152344 10.863281 7.957031 11.238281 7.738281 11.597656 L 3.421875 11.597656 C 4.277344 11.027344 4.957031 10.214844 5.359375 9.25 Z M 5.359375 14.75 C 4.957031 13.785156 4.277344 12.972656 3.421875 12.398438 L 7.738281 12.398438 C 7.957031 12.761719 8.152344 13.136719 8.316406 13.527344 C 8.476562 13.914062 8.601562 14.320312 8.703125 14.730469 L 5.652344 17.785156 C 5.851562 16.773438 5.757812 15.71875 5.359375 14.75 Z M 9.25 18.640625 C 8.605469 18.375 7.925781 18.242188 7.242188 18.242188 C 6.898438 18.242188 6.554688 18.28125 6.21875 18.347656 L 9.269531 15.296875 C 10.089844 15.5 10.871094 15.824219 11.601562 16.265625 L 11.601562 20.578125 C 11.027344 19.722656 10.214844 19.042969 9.25 18.640625 Z M 14.75 18.640625 C 13.785156 19.042969 12.972656 19.722656 12.398438 20.578125 L 12.398438 16.265625 C 13.125 15.824219 13.910156 15.5 14.730469 15.296875 L 17.785156 18.347656 C 16.773438 18.148438 15.71875 18.242188 14.75 18.640625 Z M 18.640625 14.75 C 18.242188 15.71875 18.148438 16.773438 18.347656 17.785156 L 15.296875 14.730469 C 15.398438 14.320312 15.523438 13.914062 15.683594 13.527344 C 15.847656 13.136719 16.042969 12.761719 16.261719 12.402344 L 20.578125 12.402344 C 19.722656 12.972656 19.042969 13.785156 18.640625 14.75 Z M 18.640625 14.75"/>
</svg>

<svg xmlns="http://www.w3.org/2000/svg" width="32" height="32" viewBox="0 0 24 24">
    <path d="M23.602 11.602h-1.36a.586.586 0 0 0-.246-.172A4.466 4.466 0 0 1 19.38 8.94a4.459 4.459 0 0 1 .094-3.605.564.564 0 0 0 .05-.297l.961-.957a.4.4 0 0 0-.566-.566l-.957.96a.564.564 0 0 0-.297.051 4.452 4.452 0 0 1-3.61.094 4.47 4.47 0 0 1-2.484-2.617.586.586 0 0 0-.172-.246V.398a.398.398 0 1 0-.796 0v1.36a.586.586 0 0 0-.172.246 4.443 4.443 0 0 1-6.094 2.523.564.564 0 0 0-.297-.05l-.957-.961a.4.4 0 0 0-.566.566l.96.957c-.007.102.004.2.051.297a4.448 4.448 0 0 1-2.523 6.094.586.586 0 0 0-.246.172H.398a.398.398 0 1 0 0 .796h1.36a.586.586 0 0 0 .246.172A4.466 4.466 0 0 1 4.62 15.06a4.459 4.459 0 0 1-.094 3.605.564.564 0 0 0-.05.297l-.961.957a.4.4 0 0 0 .566.566l.961-.96a.59.59 0 0 0 .293-.051 4.452 4.452 0 0 1 3.61-.094 4.46 4.46 0 0 1 2.484 2.617c.035.102.097.18.172.246v1.36a.401.401 0 0 0 .8 0v-1.36a.615.615 0 0 0 .168-.246 4.443 4.443 0 0 1 6.094-2.523.564.564 0 0 0 .297.05l.96.961a.396.396 0 0 0 .563 0 .4.4 0 0 0 0-.566l-.957-.957a.61.61 0 0 0-.054-.297 4.442 4.442 0 0 1-.09-3.605 4.46 4.46 0 0 1 2.613-2.489.615.615 0 0 0 .246-.168h1.36a.401.401 0 0 0 0-.8zM18.64 9.25a5.286 5.286 0 0 0 1.937 2.352h-4.316a8.782 8.782 0 0 1-.578-1.13 8.468 8.468 0 0 1-.387-1.202l3.05-3.055a5.286 5.286 0 0 0 .294 3.035zm-3.996 4.828l-1.68-1.68h2.375c-.145.27-.277.543-.395.82a9.74 9.74 0 0 0-.3.86zm-5.59-.86a9.859 9.859 0 0 0-.395-.82h2.375l-1.68 1.68a9.74 9.74 0 0 0-.3-.86zm.3-3.296l1.68 1.68H8.66c.145-.27.277-.543.395-.82.117-.282.21-.571.3-.86zm3.043-1.266c.54.29 1.098.524 1.68.7l-1.68 1.68zm-.796 2.38l-1.68-1.68a9.135 9.135 0 0 0 1.68-.7zm0 1.929v2.379a9.135 9.135 0 0 0-1.68-.7zm.796 0l1.68 1.68c-.582.175-1.14.41-1.68.699zm.567-1.363l1.68-1.68c.09.289.183.578.3.86.117.277.25.55.395.82zm1.785-6.243a5.286 5.286 0 0 0 3.035.293L14.73 8.703a8.4 8.4 0 0 1-2.332-.969V3.422a5.286 5.286 0 0 0 2.352 1.937zm-5.5 0a5.286 5.286 0 0 0 2.352-1.937v4.312a8.35 8.35 0 0 1-2.332.97L6.215 5.651c1.012.2 2.066.106 3.035-.293zM5.36 9.25a5.286 5.286 0 0 0 .292-3.035L8.703 9.27c-.101.41-.226.816-.387 1.203-.164.39-.359.765-.578 1.125H3.422A5.255 5.255 0 0 0 5.359 9.25zm0 5.5a5.286 5.286 0 0 0-1.938-2.352h4.316c.219.364.414.739.578 1.13.16.386.286.792.387 1.202l-3.05 3.055a5.286 5.286 0 0 0-.294-3.035zm3.89 3.89a5.259 5.259 0 0 0-2.008-.398c-.344 0-.687.04-1.023.106l3.05-3.051a8.4 8.4 0 0 1 2.333.969v4.312a5.286 5.286 0 0 0-2.352-1.937zm5.5 0a5.286 5.286 0 0 0-2.352 1.938v-4.312a8.35 8.35 0 0 1 2.332-.97l3.055 3.052a5.286 5.286 0 0 0-3.035.293zm3.89-3.89a5.286 5.286 0 0 0-.292 3.035l-3.051-3.055c.101-.41.226-.816.387-1.203.164-.39.359-.765.578-1.125h4.316a5.255 5.255 0 0 0-1.937 2.348zm0 0"/>
</svg>
